img/svg/ok-green.svg

<svg width="24" height="24" viewBox="0 0 24 24" fill="none" xmlns="http://www.w3.org/2000/svg">
<circle cx="12.5" cy="12.5" r="10.5" fill="#27AE60"/>
<path d="M9.65233 12.5397C9.12199 11.9033 8.17614 11.8173 7.53972 12.3477C6.90331 12.878 6.81732 13.8239 7.34767 14.4603L9.65233 12.5397ZM11 16.5L9.84767 17.4603C10.1643 17.8403 10.648 18.0397 11.1405 17.9934C11.633 17.9471 12.071 17.6609 12.3112 17.2285L11 16.5ZM17.4603 10.6523C18.0967 10.122 18.1827 9.17614 17.6523 8.53972C17.122 7.90331 16.1761 7.81732 15.5397 8.34767L17.4603 10.6523ZM7.34767 14.4603L9.84767 17.4603L12.1523 15.5397L9.65233 12.5397L7.34767 14.4603ZM11 16.5C12.3112 17.2285 12.3111 17.2286 12.3111 17.2288C12.3111 17.2288 12.311 17.2289 12.311 17.229C12.3109 17.2291 12.3109 17.2291 12.3109 17.2291C12.311 17.229 12.3111 17.2286 12.3115 17.228C12.3122 17.2268 12.3134 17.2245 12.3153 17.2212C12.319 17.2145 12.3251 17.2037 12.3335 17.189C12.3503 17.1594 12.3762 17.1141 12.4107 17.0545C12.4799 16.9352 12.5836 16.7593 12.718 16.5391C12.987 16.0981 13.3769 15.4834 13.8564 14.7941C14.8301 13.3944 16.1144 11.7739 17.4603 10.6523L15.5397 8.34767C13.8856 9.72613 12.4199 11.6056 11.3936 13.0809C10.8731 13.8291 10.4505 14.4956 10.157 14.9765C10.0101 15.2173 9.89508 15.4124 9.81582 15.549C9.77618 15.6174 9.74544 15.6711 9.72411 15.7087C9.71345 15.7275 9.70513 15.7423 9.69922 15.7528C9.69626 15.7581 9.69391 15.7623 9.69216 15.7654C9.69129 15.767 9.69057 15.7683 9.69 15.7693C9.68972 15.7698 9.68948 15.7703 9.68927 15.7706C9.68917 15.7708 9.68904 15.771 9.68899 15.7711C9.68887 15.7713 9.68876 15.7715 11 16.5Z" fill="white"/>
</svg>

<svg xmlns="http://www.w3.org/2000/svg" width="24" height="24" fill="none" ><circle cx="12.5" cy="12.5" r="10.5" fill="#27ae60"/><path d="M9.652 12.54a1.5 1.5 0 1 0-2.305 1.921l2.305-1.921zM11 16.5l-1.152.96a1.5 1.5 0 0 0 2.464-.232L11 16.5zm6.46-5.848a1.5 1.5 0 1 0-1.921-2.305l1.921 2.305zM7.348 14.46l2.5 3 2.305-1.921-2.5-3-2.305 1.921zM11 16.5l1.311.729.022-.04.077-.134.307-.515 1.138-1.745c.974-1.4 2.258-3.02 3.604-4.142L15.54 8.348c-1.654 1.378-3.12 3.258-4.146 4.733l-1.237 1.896-.341.572-.092.16-.025.044-.01.018A178.27 178.27 0 0 0 11 16.5z" fill="#fff"/></svg>
